Adwaita++/apps/16/google-earth.svg

<svg height="16" viewBox="0 0 16 16" width="16" xmlns="http://www.w3.org/2000/svg">
  <path d="m6.8495853 15.439433c-1.4710669-.229828-2.8646437-.921338-3.9951965-1.982456-.9696075-.910069-1.5854963-1.866769-2.02554286-3.1464-.30763219-.894581-.32884594-1.0439342-.32884594-2.3151748 0-1.27125.02121563-1.4206031.32884594-2.3151844.44258066-1.2870093 1.05510656-2.2355531 2.04139406-3.1612781.9008409-.8455125 2.1390244-1.53253122 3.3199613-1.84207502.9770474-.25611561 2.7493415-.23069999 3.7641018.054 2.6886059.75424692 4.7329109 2.85423752 5.3835869 5.53020002.216147.8889281.216147 2.5798219 0 3.4687406-.643463 2.6463087-2.713118 4.7873057-5.326194 5.5097717-.8692454.240337-2.3173088.331875-3.1621107.199893zm-1.945919-1.554619c-.094727-.8385.2150934-.920662 1.8437381-.488925.8861559.234909 1.2057281.267741 2.6712469.274463 1.4203157.0066 1.8019207-.02653 2.5997027-.22531.905613-.225619.950043-.250294 1.412065-.784237.73569-.85021.73482-.852141-.254036-.563616-.767352.223894-1.079695.258159-2.39573.262884-2.1816533.0075-3.2123689-.230981-6.2815771-1.455384-1.9595503-.781734-2.398034-.851775-2.8030228-.447703-.1362009.135891-.2472112.305756-.24669.377484.00422.576535 1.8005185 2.602435 2.8239469 3.184838.3051891.173672.5833622.3162.6181631.316725.0348.000497.040284-.202528.012197-.451219zm10.0585767-3.750384c.15851-.5694747.135504-.8304559-.07321-.8304559-.279495 0-1.549597-.6399-2.380684-1.1994469-1.00053-.6736125-1.786147-1.331175-3.2290468-2.7027187-2.7036291-2.5699032-3.7316091-3.0073313-5.9346169-2.5253625-.38751.08475-.5561831.1991812-.9190087.6233531-.2444128.2857406-.5835019.7460156-.7535316 1.0228312-.3043894.4955625-.765795 1.55625-.70385812 1.6180407.01744687.0174375.33919782-.2143688.71501252-.5150532 1.4529403-1.1624625 2.3521687-1.0697906 4.658234.4800469.4439119.2983406 1.5789132 1.0618875 2.5222266 1.6967625 2.303425 1.5502781 3.323568 2.0743681 4.893118 2.5137648.985244.275822 1.082057.261225 1.205364-.181762zm-.336955-3.6002715c.293428-.2927625.283177-.3594094-.21747-1.4137125-.905102-1.9060313-2.70145-3.3854625-4.7873886-3.9427875-.9484078-.25339692-2.8637194-.22752192-3.6824503.0497812l-.6053344.2049938 1.0633603.010125c2.5005356.023625 4.070121.9162375 5.753292 3.2718562.911279 1.2753469 1.027528 1.4155781 1.489213 1.7963531.416308.34335.660361.3491719.986778.023437z" fill="#444"/>
</svg>

<svg xmlns="http://www.w3.org/2000/svg" width="16" height="16" version="1.1" viewBox="0 0 16 16">
 <path fill="#444" d="M 6.8495853,15.439433 C 5.3785184,15.209605 3.9849416,14.518095 2.8543888,13.456977 1.8847813,12.546908 1.2688925,11.590208 0.82884594,10.310577 0.52121375,9.415996 0.5,9.2666428 0.5,7.9954022 0.5,6.7241522 0.52121563,6.5747991 0.82884594,5.6802178 1.2714266,4.3932085 1.8839525,3.4446647 2.87024,2.5189397 3.7710809,1.6734272 5.0092644,0.98640848 6.1902013,0.67686468 7.1672487,0.42074907 8.9395428,0.44616469 9.9543031,0.73086468 12.642909,1.4851116 14.687214,3.5851022 15.33789,6.2610647 c 0.216147,0.8889281 0.216147,2.5798219 0,3.4687406 -0.643463,2.6463087 -2.713118,4.7873057 -5.326194,5.5097717 -0.8692454,0.240337 -2.3173088,0.331875 -3.1621107,0.199893 z m -1.945919,-1.554619 c -0.094727,-0.8385 0.2150934,-0.920662 1.8437381,-0.488925 0.8861559,0.234909 1.2057281,0.267741 2.6712469,0.274463 1.4203157,0.0066 1.8019207,-0.02653 2.5997027,-0.22531 0.905613,-0.225619 0.950043,-0.250294 1.412065,-0.784237 0.73569,-0.85021 0.73482,-0.852141 -0.254036,-0.563616 -0.767352,0.223894 -1.079695,0.258159 -2.39573,0.262884 -2.1816533,0.0075 -3.2123689,-0.230981 -6.2815771,-1.455384 -1.9595503,-0.781734 -2.398034,-0.851775 -2.8030228,-0.447703 -0.1362009,0.135891 -0.2472112,0.305756 -0.24669,0.377484 0.00422,0.576535 1.8005185,2.602435 2.8239469,3.184838 0.3051891,0.173672 0.5833622,0.3162 0.6181631,0.316725 0.0348,4.97e-4 0.040284,-0.202528 0.012197,-0.451219 z M 14.962243,10.13443 c 0.15851,-0.5694747 0.135504,-0.8304559 -0.07321,-0.8304559 -0.279495,0 -1.549597,-0.6399 -2.380684,-1.1994469 C 11.507819,7.4309147 10.722202,6.7733522 9.2793022,5.4018085 6.5756731,2.8319053 5.5476931,2.3944772 3.3446853,2.876446 2.9571753,2.961196 2.7885022,3.0756272 2.4256766,3.4997991 2.1812638,3.7855397 1.8421747,4.2458147 1.672145,4.5226303 1.3677556,5.0181928 0.90635,6.0788803 0.96828688,6.140671 0.98573375,6.1581085 1.3074847,5.9263022 1.6832994,5.6256178 3.1362397,4.4631553 4.0354681,4.5558272 6.3415334,6.1056647 6.7854453,6.4040053 7.9204466,7.1675522 8.86376,7.8024272 c 2.303425,1.5502781 3.323568,2.0743681 4.893118,2.5137648 0.985244,0.275822 1.082057,0.261225 1.205364,-0.181762 z M 14.625288,6.5341585 C 14.918716,6.241396 14.908465,6.1747491 14.407818,5.120446 13.502716,3.2144147 11.706368,1.7349835 9.6204294,1.1776585 8.6720216,0.92426158 6.75671,0.95013658 5.9379791,1.2274397 L 5.3326447,1.4324335 6.396005,1.4425585 c 2.5005356,0.023625 4.070121,0.9162375 5.753292,3.2718562 0.911279,1.2753469 1.027528,1.4155781 1.489213,1.7963531 0.416308,0.34335 0.660361,0.3491719 0.986778,0.023437 z"/>
</svg>
